src/assets/images/icon-apple.svg

<svg fill="none" height="105" viewBox="0 0 89 105" width="89" xmlns="http://www.w3.org/2000/svg"><path d="m74.1198 100.772c-5.724 5.527-12.0394 4.665-18.0591 2.059-6.3998-2.658-12.2505-2.826-19.0095 0-8.417 3.615-12.8842 2.564-17.9534-2.059-28.61988-29.3176-24.39554-73.9766 8.1318-75.6579 7.889.4203 13.4123 4.3398 18.0591 4.6656 6.9068-1.3976 13.5179-5.4012 20.9104-4.8758 8.8817.7146 15.5245 4.2032 19.96 10.4765-18.2702 10.9283-13.9403 34.8866 2.8409 41.6117-3.3583 8.7742-7.6672 17.4433-14.8908 23.8529zm-29.4648-75.9731c-.8554-13.0299 9.7582-23.7481 21.9666-24.7989 1.6792 15.0264-13.7291 26.27-21.9666 24.7989z" fill="#fff"/></svg>

<svg width="89" height="105" viewBox="0 0 89 105" fill="none" xmlns="http://www.w3.org/2000/svg">
<path d="M74.1198 100.772C68.3958 106.299 62.0804 105.437 56.0607 102.831C49.6609 100.173 43.8102 100.005 37.0512 102.831C28.6342 106.446 24.167 105.395 19.0978 100.772C-9.52208 71.4544 -5.29774 26.7954 27.2296 25.1141C35.1186 25.5344 40.6419 29.4539 45.2887 29.7797C52.1955 28.3821 58.8066 24.3785 66.1991 24.9039C75.0808 25.6185 81.7236 29.1071 86.1591 35.3804C67.8889 46.3087 72.2188 70.267 89 76.9921C85.6417 85.7663 81.3328 94.4354 74.1092 100.845L74.1198 100.772ZM44.655 24.7989C43.7996 11.769 54.4132 1.0508 66.6216 0C68.3008 15.0264 52.8925 26.27 44.655 24.7989Z" fill="white"/>
</svg>
